X: 6
T: The Hills Of Glenorchy
R: jig
M: 6/8
L: 1/8
K: Edor
d/>c/ |B>EE E>FE | B>AB d2 c/<B/ | A>FE D>ED | FDF A2 d/<c/ |
B>EE E>FE | BAB e2 d/<c/ | d>cB A<FA | BEE E2 ||
B/d/ |e>fe Bcd | e>fe B2 c | d>cB ABc | d>cB A2 d |
e>fe Bcd | e>fe B2 c/>c/ | d>cB A<FA | BEE E2 |]


Tune 842	Setting 14012

